icons/svg/nfc.svg

﻿<?xml version="1.0" encoding="utf-8"?>
<!DOCTYPE svg PUBLIC "-//W3C//DTD SVG 1.1//EN" "http://www.w3.org/Graphics/SVG/1.1/DTD/svg11.dtd">
<svg xmlns="http://www.w3.org/2000/svg" xmlns:xlink="http://www.w3.org/1999/xlink" version="1.1" baseProfile="full" width="24" height="24" viewBox="0 0 24.00 24.00" enable-background="new 0 0 24.00 24.00" xml:space="preserve">
	<path fill="#000000" fill-opacity="1" stroke-width="0.2" stroke-linejoin="round" d="M 10.5903,7.66184C 10.5903,7.66185 11.1865,7.39087 11.5658,7.82443C 11.9452,8.25799 12.9207,9.93804 12.9207,11.6181C 12.9207,13.2981 12.4872,15.0866 12.0536,15.6827C 11.62,16.2789 11.1865,16.2789 10.8613,16.0621C 10.5361,15.8453 5.49598,11.9975 5.225,11.8891C 4.95403,11.7807 4.84564,12.0517 5.11661,13.5149C 5.38759,14.9782 4.95403,15.4118 4.57466,15.466C 4.1953,15.5201 3.0572,15.195 3.003,12.16C 2.94881,9.12512 3.76173,8.63736 4.1411,8.63736C 4.85393,8.63736 10.2665,13.5237 10.6445,13.4607C 10.9697,13.4065 11.1323,11.3471 10.4819,9.72126C 9.77776,7.96082 10.5903,7.66185 10.5903,7.66184 Z M 19.3022,4.62694C 21.1226,8.24199 21.0115,11.6602 20.997,12.0209C 21.0115,12.3352 21.1226,15.758 19.3022,19.3731C 19.3022,19.3731 18.828,19.915 18.1235,19.5899C 17.4189,19.2647 17.6628,18.3976 17.6628,18.3976C 17.6628,18.3976 19.1379,15.5496 19.099,12.0517L 19.0997,11.9975C 19.1379,8.499 17.6628,5.60243 17.6628,5.60243C 17.6628,5.60243 17.4189,4.73531 18.1235,4.41014C 18.828,4.08496 19.3022,4.62694 19.3022,4.62694 Z M 15.7715,6.25279C 17.2563,8.96253 17.1557,11.6602 17.1412,12.0209C 17.1557,12.3352 17.2563,14.924 15.7735,17.8531C 15.7735,17.8531 15.2993,18.395 14.5948,18.0699C 13.8902,17.7447 14.1341,16.8776 14.1341,16.8776C 14.1341,16.8776 15.0885,15.5201 15.2431,12.0517L 15.2438,11.9975C 15.1427,8.52896 14.1321,7.22829 14.1321,7.22829C 14.1321,7.22829 13.8883,6.36116 14.5928,6.03599C 15.2973,5.71082 15.7715,6.25279 15.7715,6.25279 Z "/>
</svg>

<svg xmlns="http://www.w3.org/2000/svg" version="1.1" baseProfile="full" width="24" height="24" viewBox="0 0 24.00 24.00" xml:space="preserve"><path fill="#000" fill-opacity="1" stroke-width=".2" stroke-linejoin="round" d="M10.59 7.662s.597-.27.976.162c.38.434 1.355 2.114 1.355 3.794 0 1.68-.433 3.47-.866 4.065-.434.596-.867.596-1.193.38-.324-.218-5.364-4.065-5.635-4.174-.27-.11-.38.162-.108 1.625.27 1.463-.163 1.897-.542 1.95-.38.055-1.518-.27-1.572-3.305-.054-3.035.76-3.523 1.138-3.523.714 0 6.127 4.887 6.505 4.824.325-.054.487-2.113-.163-3.74-.704-1.76.108-2.058.108-2.058zm8.712-3.035c1.82 3.615 1.71 7.033 1.695 7.394.015.315.126 3.738-1.695 7.353 0 0-.474.542-1.178.217-.705-.325-.46-1.192-.46-1.192s1.474-2.848 1.435-6.346v-.054c.038-3.5-1.437-6.396-1.437-6.396s-.244-.867.46-1.192c.705-.325 1.18.217 1.18.217zm-3.53 1.626c1.484 2.71 1.384 5.407 1.37 5.768.014.315.114 2.904-1.368 5.833 0 0-.475.542-1.18.217-.704-.325-.46-1.192-.46-1.192s.954-1.358 1.11-4.826v-.054c-.1-3.47-1.112-4.77-1.112-4.77s-.244-.867.46-1.192c.705-.325 1.18.217 1.18.217z"/></svg>
